X: 5
T: Little Man In A Fix
T: Bitte mand i knibe
O: Denmark
Z: 1997 by John Chambers <jc@trillian.mit.edu>
R:
M: 3/4
L: 1/8
K: G
P: Bouncy (polska)
"G"DGB |: "G"dd dc BA | GG GB AG | "D7"AA Ac BA |1 "G"GG GD GB :|2 "G"G2- Gz :|
P: Smooth (waltz)
D2 |: "C"E2 G2 FE | "G"D2 B2 AG | "D7"F2 c2 BA |1 "G"G2 B2 D2 :|2 "G"G2- Gz :|
